ix/textalign-center_bold.svg

<svg viewBox="0 0 24 24" fill="none" xmlns="http://www.w3.org/2000/svg" height="1em" width="1em">
  <path d="M21 5.25H3C2.59 5.25 2.25 4.91 2.25 4.5C2.25 4.09 2.59 3.75 3 3.75H21C21.41 3.75 21.75 4.09 21.75 4.5C21.75 4.91 21.41 5.25 21 5.25Z" fill="#292D32"/>
  <path d="M16.7417 10.25H7.26172C6.85172 10.25 6.51172 9.91 6.51172 9.5C6.51172 9.09 6.85172 8.75 7.26172 8.75H16.7317C17.1417 8.75 17.4817 9.09 17.4817 9.5C17.4817 9.91 17.1517 10.25 16.7417 10.25Z" fill="#292D32"/>
  <path d="M21 15.25H3C2.59 15.25 2.25 14.91 2.25 14.5C2.25 14.09 2.59 13.75 3 13.75H21C21.41 13.75 21.75 14.09 21.75 14.5C21.75 14.91 21.41 15.25 21 15.25Z" fill="#292D32"/>
  <path d="M16.7417 20.25H7.26172C6.85172 20.25 6.51172 19.91 6.51172 19.5C6.51172 19.09 6.85172 18.75 7.26172 18.75H16.7317C17.1417 18.75 17.4817 19.09 17.4817 19.5C17.4817 19.91 17.1517 20.25 16.7417 20.25Z" fill="#292D32"/>
</svg>

<svg viewBox="0 0 24 24" fill="none" xmlns="http://www.w3.org/2000/svg" height="1em" width="1em">
  <path d="M21 5.25H3c-.41 0-.75-.34-.75-.75s.34-.75.75-.75h18c.41 0 .75.34.75.75s-.34.75-.75.75Zm-4.258 5h-9.48c-.41 0-.75-.34-.75-.75s.34-.75.75-.75h9.47c.41 0 .75.34.75.75s-.33.75-.74.75Zm4.258 5H3c-.41 0-.75-.34-.75-.75s.34-.75.75-.75h18c.41 0 .75.34.75.75s-.34.75-.75.75Zm-4.258 5h-9.48c-.41 0-.75-.34-.75-.75s.34-.75.75-.75h9.47c.41 0 .75.34.75.75s-.33.75-.74.75Z" fill="#292D32"/>
</svg>
